X: 4
T:Agadelcha
C:Yemenite Folk
O:Israel
S:Israel Yakovee, Yemenite Jewish Folklore and Dance for educational purposes
F: http://www.youtube.com/watch?v=egQvILzqpIU
F: http://www.youtube.com/watch?v=BC9EW5ZH_9k
F: http://www.youtube.com/watch?v=weFDwFpg7DM
L:1/8
M:4/4
Q:1/4=120
K:Am
|: "Am"e4 e4      | e e6 c/c/      |e3 d c3 B           | A6 z2                  |\
   a4 e2 de       |"Dm"f3 e d2 cd  | "Am"e3 d c3 B      | A8                     :|
   "C"e2 gagf e z | "C"e2 g3 f e2  | "Dm"g2 f3 e d2     |"Am"f f e4 z2           |\
   "Dm"e2 f3 e d2 | "Am"f2 e3 d c2 | "Dm"d2 e2 d2 c2    | "Am"B2 A4 z2           |
|: "Am"a6 e2      | "Dm"f4 "Am"a4  | "Em"b2 a2 "E"^g2 a2| "Am"e8                 :|\
|: "Dm"z e f3 e d2| "Am"z f e3 d c2| "Dm"d2 e2 d2 c2    |[1 "Em"B2 A2 "Am"c2 e2  :|[2 "Em"B2 "Am" A6 |



